!!!!SEGMENT: pl-kk--kk-i-382--031_schopf--sanctus.krn
!!!cenid: 18xx:1518
!!!COM: Schöpf
!!!COM-rismID: pe50044116
!!!CDT:
!!!CNT:
!!!OTL: Sanctus
!!!PDT:
!!!AGN: Sacred
!!!SMS-siglum: PL-Kk
!!!SMS-shelfmark: Kk.I.382
!!!SMS-shelfwork: 016 W
!!!SMS-variant:
!!!SMS-altvar:
!!!NIFC-rismSourceID: 1001139498
!!!NIFC-islandoraID: pl-kk:6162
!!!URL-pdf-islandora: https://repozytorium.nifc.pl/islandora/object/pl-kk%3A6162/datastream/PDF/view
!!!URL-scan: https://polish.musicsources.pl/pl/lokalizacje/galeria/rekopisy/5994 @EN{Scan on Polish Music Sources Website} @PL{Skany w portalu Dziedzictwo Muzyki Polskiej w otwartym dostępie}
!!!ONB-nifc: UWAGA: obsada: S (T 1), A (B 1), T 2, B 2; S (T 1): skan 0031; A (B 1): skan 0179; T 2: skan 0104; B 2: skan 0253. Zawiera Sanctus i Benedictus.
!!!AIN: 1 alto 1 bass 2 tenor
!!!key:
**kern	**text	**dynam	**kern	**text	**dynam	**kern	**text	**dynam	**kern	**text	**dynam
*part4	*part4	*part4	*part3	*part3	*part3	*part2	*part2	*part2	*part1	*part1	*part1
*staff4	*staff4	*	*staff3	*staff3	*	*staff2	*staff2	*	*staff1	*staff1	*
*Ibass	*	*	*Itenor	*	*	*Ialto	*	*	*Itenor	*	*
*I"Basso II	*	*	*I"Tenore II	*	*	*I"Alto vel Basso I	*	*	*I"Soprano vel Tenore I.	*	*
*I'B 2	*	*	*I'T 2	*	*	*I'A (B 1)	*	*	*I'S (T 1)	*	*
*clefF4	*	*	*clefG2	*	*	*clefF4	*	*	*clefG2	*	*
*	*	*	*Trd0c0	*	*	*	*	*	*Trd0c0	*	*
*k[f#c#]	*	*	*k[f#c#]	*	*	*k[f#c#]	*	*	*k[f#c#]	*	*
*D:	*	*	*D:	*	*	*D:	*	*	*D:	*	*
*M2/2	*	*	*M2/2	*	*	*M2/2	*	*	*M2/2	*	*
*met(c|)	*	*	*met(c|)	*	*	*met(c|)	*	*	*met(c|)	*	*
=1	=1	=1	=1	=1	=1	=1	=1	=1	=1	=1	=1
*2\right	*	*	*2\right	*	*	*2\right	*	*	*2\right	*	*
!LO:TX:i:a:t=Allegretto	!	!	!LO:TX:i:a:t=Allegretto	!	!	!LO:TX:i:a:t=Allegretto	!	!	!LO:TX:i:a:t=Allegretto	!	!LO:DY:b:rj
!LO:TX:a:t=P:global:problem=oznaczenia dynamiczne na pięciolinii przed nutą	!	!LO:DY:b:rj	!LO:TX:a:t=P:global:problem=oznaczenia dynamiczne na pięciolinii przed nutą	!	!LO:DY:b:rj	!LO:TX:a:t=P:global:problem=oznaczenia dynamiczne na pięciolinii przed nutą	!	!LO:DY:b:rj	!LO:TX:a:t=P:global:problem=oznaczenia dynamiczne na pięciolinii przed nutą	!	!
1D	Sanc-	p	1a	Sanc-	p	1F#	Sanc-	p	1dd	Sanc-	p
=2	=2	=2	=2	=2	=2	=2	=2	=2	=2	=2	=2
1AA;>	-tus	.	1a;>	-tus	.	1E;>	-tus	.	1cc#;>	-tus	.
=3	=3	=3	=3	=3	=3	=3	=3	=3	=3	=3	=3
!	!	!LO:DY:b:rj	!	!	!LO:DY:b:rj	!	!	!LO:DY:b:rj	!	!	!LO:DY:a:rj
1D	Sanc-	p	1a	Sanc-	p	1F#	Sanc-	p	1dd	Sanc-	p
=4	=4	=4	=4	=4	=4	=4	=4	=4	=4	=4	=4
1AA;>	-tus	.	1a;>	-tus	.	1E;>	-tus	.	1cc#;>	-tus	.
=5	=5	=5	=5	=5	=5	=5	=5	=5	=5	=5	=5
!	!	!LO:DY:b:rj	!LO:TX:t=P:problem=2/left&colon; global	!	!LO:DY:b:rj	!	!	!LO:DY:b:rj	!	!	!LO:DY:b:rj
2D\	Sanc-	f	2a/	Sanc-	f	2F#\	Sanc-	f	2dd\	Sanc-	f
!LO:TX:t=P:problem=2/left&colon; global	!	!	!	!	!	!	!	!	!	!	!
2AA/	-tus	.	2a/	-tus	.	2E\	-tus	.	2cc#\	-tus	.
=6	=6	=6	=6	=6	=6	=6	=6	=6	=6	=6	=6
!LO:TX:t=P:problem=all/left&colon; global	!	!	!LO:TX:t=P:problem=all\right&colon; global	!	!	!LO:TX:t=P:problem=all\right&colon; global	!	!	!LO:TX:t=P:problem=all\right&colon; global	!	!
4.GGn/	Do-	.	4.b\	Do-	.	4.Gn\	Do-	.	4.ee\	Do-	.
8GG/	-mi-	.	8b\	-mi-	.	8G\	-mi-	.	8ee\	-mi-	.
2BB/	-nus	.	2b\	-nus	.	2F#\	-nus	.	2dd\	-nus	.
!LO:LB:g=original	!	!	!LO:LB:g=original	!	!	!	!	!	!LO:LB:g=original	!	!
=7	=7	=7	=7	=7	=7	=7	=7	=7	=7	=7	=7
4BB/	De-	.	4b\	De-	.	4F#\	De-	.	4dd\	De-	.
4BB/	-us	.	4b\	-us	.	4F#\	-us	.	4dd\	-us	.
4.GGn/	sa-	.	4.b\	Sa-	.	4.Gn\	Sa-	.	4.dd\	Sa-	.
8GG/	-ba-	.	8b\	-ba-	.	8E\	-ba-	.	8ee\	-ba-	.
!	!	!	!	!	!	!LO:LB:g=original	!	!	!	!	!
=8	=8	=8	=8	=8	=8	=8	=8	=8	=8	=8	=8
1AA;>	-oth	.	1a;>	-oth	.	1E;>	-oth	.	1cc#;>	-oth	.
=9||	=9||	=9||	=9||	=9||	=9||	=9||	=9||	=9||	=9||	=9||	=9||
!	!	!	!	!	!	!	!	!	!LO:TX:t=P:2/left:problem	!	!LO:DY:b:rj
!	!	!LO:DY:b:rj	!	!	!LO:DY:b:rj	!LO:TX:i:a:t=Allegro	!	!	!LO:TX:i:a:t=Allegro	!	!
2A\	Ple-	ff	2a/	Ple-	ff	2A\	ple-	.	2a/	Ple-	ff
!LO:TX:t=P:problem=all\right&colon; global	!	!	!	!	!	!	!	!	!	!	!
4B\	-ni	.	4b\	-ni	.	4B\	-ni	.	4b\	-ni	.
4c#\	sunt	.	4cc#\	sunt	.	4c#\	sunt	.	4cc#\	sunt	.
=10	=10	=10	=10	=10	=10	=10	=10	=10	=10	=10	=10
2d\	coe-	.	2dd\	coe-	.	2d\	coe-	.	2dd\	coe-	.
!	!	!	!LO:TX:t=P:problem=all/left&colon; global	!	!	!	!	!	!LO:TX:t=P:problem=all/left&colon; global	!	!
4A\	-li	.	4a/	-li	.	4A\	-li	.	4a/	-li	.
4A\	et	.	4a/	et	.	4A\	et	.	4a/	et	.
!	!	!	!	!	!	!	!	!	!LO:LB:g=original	!	!
=11	=11	=11	=11	=11	=11	=11	=11	=11	=11	=11	=11
(>4D\	ter-	.	(>4a/	ter-	.	(<4F#\	ter-	.	(>4dd\	ter-	.
4AA/)	.	.	4cc#\)	.	.	4A\)	.	.	4ee\)	.	.
2D\	-ra	.	2dd\	-ra	.	2A\	-ra	.	2ff#\	-ra	.
!	!	!	!LO:LB:g=original	!	!	!	!	!	!	!	!
=12	=12	=12	=12	=12	=12	=12	=12	=12	=12	=12	=12
4.G\	glo-	.	4.dd\	glo-	.	4.B\	glo-	.	4.gg\	glo-	.
8G\	-ri-	.	8dd\	-ri-	.	8B\	-ri-	.	8gg\	-ri-	.
2D\	-a	.	2dd\	-a	.	2A\	-a	.	2ff#\	-a	.
!LO:LB:g=original	!	!	!	!	!	!	!	!	!	!	!
=13	=13	=13	=13	=13	=13	=13	=13	=13	=13	=13	=13
1AA	tu-	.	(>2cc#\	tu-	.	(>2.A\	tu-	.	(>2ee\	tu-	.
.	.	.	2dd\)	.	.	.	.	.	2ff#\)	.	.
.	.	.	.	.	.	4G#X\)	.	.	.	.	.
!	!	!	!	!	!	!LO:LB:g=original	!	!	!	!	!
=14	=14	=14	=14	=14	=14	=14	=14	=14	=14	=14	=14
2AA/	-a	.	2cc#\	-a	.	2A\	-a	.	2ee\	-a	.
4r	.	.	4r	.	.	4r	.	.	4r	.	.
4A\	Ho-	.	4a/	Ho-	.	4A\	Ho-	.	4a/	Ho-	.
!	!	!	!	!	!	!	!	!	!LO:LB:g=original	!	!
=15	=15	=15	=15	=15	=15	=15	=15	=15	=15	=15	=15
4B\	-san-	.	4b\	-san-	.	4B\	-san-	.	4b\	-san-	.
4A\	-na	.	4a/	-na	.	4A\	-na	.	4a/	-na	.
4B\	in	.	4b\	in	.	4B\	in	.	4b\	in	.
4c#\	ex-	.	4cc#\	ex-	.	4c#\	ex-	.	4cc#\	ex-	.
=16	=16	=16	=16	=16	=16	=16	=16	=16	=16	=16	=16
2d\	-cel-	.	2dd\	-cel-	.	2d\	-cel-	.	2dd\	-cel-	.
4A\	-sis	.	4a/	-sis	.	4A\	-sis	.	4a/	-sis	.
4A\	Ho-	.	4a/	Ho-	.	4A\	Ho-	.	4a/	Ho-	.
!	!	!	!LO:LB:g=original	!	!	!	!	!	!	!	!
=17	=17	=17	=17	=17	=17	=17	=17	=17	=17	=17	=17
(>4F#\	-san-	.	(<4dd\	-san-	.	2A\	-san-	.	(>4dd\	-san-	.
4E\)	.	.	4cc#\)	.	.	.	.	.	4ee\)	.	.
2D\	-na	.	2dd\	-na	.	2A\	-na	.	2ff#\	-na	.
=18	=18	=18	=18	=18	=18	=18	=18	=18	=18	=18	=18
2G\	in	.	2dd\	in	.	2B\	in	.	2gg\	in	.
2D\	ex-	.	2dd\	ex-	.	2A\	ex-	.	2ff#\	ex-	.
!LO:LB:g=original	!	!	!	!	!	!	!	!	!LO:LB:g=original	!	!
=19	=19	=19	=19	=19	=19	=19	=19	=19	=19	=19	=19
2AA/	-cel-	.	2cc#\	-cel-	.	(>4A\	-cel-	.	2ee\	-cel-	.
.	.	.	.	.	.	4G\)	.	.	.	.	.
4BB/	-sis	.	4b\	-sis	.	4F#\	-sis	.	4dd\	-sis	.
4BB/	Ho-	.	4b\	Ho-	.	4F#\	Ho-	.	4dd\	Ho-	.
!	!	!	!	!	!	!LO:LB:g=original	!	!	!	!	!
=20	=20	=20	=20	=20	=20	=20	=20	=20	=20	=20	=20
(>2GG/	-san-	.	(>2b\	-san-	.	(>2G\	-san-	.	(>4ee\	-san-	.
.	.	.	.	.	.	.	.	.	(>2dd\)	.	.
2AA/)	.	.	2a\)	.	.	2E\)	.	.	.	.	.
.	.	.	.	.	.	.	.	.	4cc#\)	[[n]]-	.
=21	=21	=21	=21	=21	=21	=21	=21	=21	=21	=21	=21
4D\	-na	.	4a/	-na	.	4F#\	-na	.	4dd\	-na	.
4r	.	.	4r	.	.	4r	.	.	4r	.	.
4D\	in	.	4a/	in	.	4F#\	in	.	4dd\	in	.
4D\	ex-	.	4a/	ex-	.	4F#\	ex-	.	4dd\	ex-	.
!	!	!	!LO:LB:g=original	!	!	!	!	!	!	!	!
=22	=22	=22	=22	=22	=22	=22	=22	=22	=22	=22	=22
!LO:TX:i:a:t=ritard.	!	!	!LO:TX:i:a:t=ritard.	!	!	!	!	!	!	!	!
1D	-cel-	.	(<4a/	-cel-	.	(<4F#\	-cel-	.	[>2dd\	-cel-	.
.	.	.	4b/	.	.	4G\	.	.	.	.	.
.	.	.	4a/	.	.	4F#\	.	.	2dd\]	.	.
.	.	.	4g/)	.	.	4E\)	.	.	.	.	.
=23	=23	=23	=23	=23	=23	=23	=23	=23	=23	=23	=23
1D;>	-sis	.	1a;>	-sis	.	1F#;>	-sis	.	1dd;>	-sis	.
!LO:LB:g=original	!	!	!LO:LB:g=original	!	!	!LO:LB:g=original	!	!	!LO:LB:g=original	!	!
==24	==24	==24	==24	==24	==24	==24	==24	==24	==24	==24	==24
*k[f#]	*	*	*k[f#]	*	*	*k[f#]	*	*	*k[f#]	*	*
*G:	*	*	*G:	*	*	*G:	*	*	*G:	*	*
*M3/4	*	*	*M3/4	*	*	*M3/4	*	*	*M3/4	*	*
!LO:TX:a:i:t=Solo	!	!LO:DY:b:rj	!LO:TX:a:i:t=Solo	!	!	!LO:TX:a:i:t=Solo	!	!	!LO:TX:a:i:t=Solo	!	!
!LO:TX:i:a:t=Largetto	!	!	!LO:TX:B:a:i:t=Benedictus	!	!	!LO:TX:i:a:t=Largetto	!	!	!LO:TX:a:i:t=Largetto con\nexpressione	!	!
!LO:TX:B:a:i:t=Benedictus	!	!	!LO:TX:a:i:t=Largetto con expressione	!	!	!LO:TX:B:a:i:t=Benedictus	!	!	!LO:TX:B:a:i:t=Benedictus	!	!LO:DY:b:rj
!LO:TX:a:t=P:problem=napis "Benedictus" na pięciolinii przed kluczem	!	!	!LO:TX:a:t=P:problem=napis "Benedictus" na pięciolinii przed kluczem	!	!LO:DY:b:rj	!LO:TX:a:t=P:problem=napis "Benedictus" na pięciolinii przed kluczem	!	!LO:DY:b:rj	!LO:TX:a:t=P:problem=napisy "Benedictus" oraz "Largetto.." na pięciolinii przed kluczem	!	!
(<4GG/	Be-	mf	2g/	Be-	mf	2D\	Be-	mf	(>4b\	Be-	mf
4BB/)	.	.	.	.	.	.	.	.	4dd\)	.	.
4C/	-ne-	.	4g/	-ne-	.	4E\	-ne-	.	4cc\	-ne-	.
!	!	!	!	!	!	!	!	!	!LO:LB:g=original	!	!
=25	=25	=25	=25	=25	=25	=25	=25	=25	=25	=25	=25
4D\	-dic-	.	4f#/	-dic-	.	4D\	-dic-	.	4a/	-dic-	.
4GG/	-tus	.	4g/	-tus	.	4D\	-tus	.	4b\	-tus	.
!	!	!LO:DY:b:rj	!	!	!LO:DY:b:rj	!	!	!LO:DY:a:rj	!	!	!LO:DY:b:rj
4GG/	qui	f	4g/	qui	f	4D\	qui	f	4b\	qui	f
!LO:LB:g=original	!	!	!LO:LB:g=original	!	!	!	!	!	!	!	!
=26	=26	=26	=26	=26	=26	=26	=26	=26	=26	=26	=26
4C/	ve-	.	4g/	ve-	.	4E\	ve-	.	4cc\	ve-	.
4GG/	-nit	.	4g/	-nit	.	4D\	-nit	.	4b\	-nit	.
4r	.	.	(<8b/L	in	.	(>8G\L	in	.	4dd\	in	.
.	.	.	8a/J)	.	.	8F#\J)	.	.	.	.	.
!	!	!	!	!	!	!LO:LB:g=original	!	!	!	!	!
=27	=27	=27	=27	=27	=27	=27	=27	=27	=27	=27	=27
8r	.	.	4.g/	no-	.	4.E\	no-	.	(>4dd\	no-	.
8E\	in	.	.	.	.	.	.	.	.	.	.
8E\	no-	.	.	.	.	.	.	.	8cc\)	.	.
8D\	-mi-	.	8b\	-mi-	.	8G\	-mi-	.	8dd\	-mi-	.
4C/	-ne	.	4cc\	-ne	.	4G\	-ne	.	4ee\	-ne	.
=28	=28	=28	=28	=28	=28	=28	=28	=28	=28	=28	=28
!	!	!	!	!	!LO:DY:b:rj	!	!	!	!	!	!
2D\	Do-	.	2a/	Do-	p	(>4G\	Do-	.	2dd\	Do-	.
.	.	.	.	.	.	8F#\L	.	.	.	.	.
.	.	.	.	.	.	8E\J)	.	.	.	.	.
4D\	-mi-	.	4a/	-mi-	.	4F#\	-mi-	.	4dd\	-mi-	.
=29	=29	=29	=29	=29	=29	=29	=29	=29	=29	=29	=29
2GG/	-ni	.	2b\	-ni	.	2G\	-ni	.	2dd\	-ni	.
!	!	!	!	!	!	!LO:TX:i:a:t=tutti	!	!	!	!	!
4r	.	.	4r	.	.	4r	.	.	4r	.	.
!	!	!	!	!	!	!	!	!	!LO:LB:g=original	!	!
=30	=30	=30	=30	=30	=30	=30	=30	=30	=30	=30	=30
!	!	!LO:DY:b:rj	!LO:TX:i:a:t=tutti	!	!LO:DY:b:rj	!	!	!	!	!	!
(<4GG/	be-	mf	2g/	be-	mf	2D\	be-	.	(>4b\	be-	.
4BB/)	.	.	.	.	.	.	.	.	4dd\)	.	.
4C/	-ne-	.	4g/	-ne-	.	4E\	-ne-	.	4cc\	-ne-	.
!LO:LB:g=original	!	!	!	!	!	!	!	!	!	!	!
=31	=31	=31	=31	=31	=31	=31	=31	=31	=31	=31	=31
4D\	-dic-	.	4f#/	-dic-	.	4D\	-dic-	.	4a/	-dic-	.
4GG/	-tus	.	4g/	-tus	.	4D\	-tus	.	4b\	-tus	.
!	!	!	!	!	!LO:DY:a:rj	!	!	!	!	!	!
(>8G\L	qui	.	4dd\	qui	f	(>8B\L	qui	.	4dd\	qui	.
8F#\J)	.	.	.	.	.	8A\J)	.	.	.	.	.
!	!	!	!LO:LB:g=original	!	!	!	!	!	!	!	!
=32	=32	=32	=32	=32	=32	=32	=32	=32	=32	=32	=32
(>8E\L	ve-	.	4cc\	ve-	.	(>8G\L	ve-	.	4ee\	ve-	.
8F#\J)	.	.	.	.	.	8A\J)	.	.	.	.	.
4G\	-nit	.	4b\	-nit	.	4B\	-nit	.	4dd\	-nit	.
4BB/	in	.	4dd\	in	.	4G\	in	.	(>8gg\L	in	.
.	.	.	.	.	.	.	.	.	8ff#\J)	.	.
!	!	!	!	!	!	!LO:LB:g=original	!	!	!	!	!
=33	=33	=33	=33	=33	=33	=33	=33	=33	=33	=33	=33
2C/	no-	.	(>4dd\	no-	.	2G\	no-	.	2ee\	no-	.
.	.	.	8cc\L	.	.	.	.	.	.	.	.
.	.	.	8dd\J)	.	.	.	.	.	.	.	.
8C/	-mi-	.	8cc\	-mi-	.	8G\	-mi-	.	8ee\	-mi-	.
8C/	-ne	.	8b\	-ne	.	8G\	-ne	.	8ee\	-ne	.
!	!	!	!	!	!	!	!	!	!LO:LB:g=original	!	!
=34	=34	=34	=34	=34	=34	=34	=34	=34	=34	=34	=34
2D\	Do-	.	2a/	Do-	.	(>4G\	Do-	.	(>4ee\	Do-	.
.	.	.	.	.	.	4F#\)	.	.	8dd\L	.	.
.	.	.	.	.	.	.	.	.	8ee\J)	.	.
(>8D\L	-mi-	.	4a/	-mi-	.	4F#\	-mi-	.	8dd\L	-mi-	.
8D#X\J)	.	.	.	.	.	.	.	.	8cc\J	.	.
=35	=35	=35	=35	=35	=35	=35	=35	=35	=35	=35	=35
!	!	!	!LO:SIC:v:l:s=-ni	!	!	!LO:SIC:v:l:s=-ni	!	!	!	!	!
8E\	-ni	.	8g/	-ne	.	8E\	-ne	.	8b\	-ni	.
8E\	qui	.	8g/	qui	.	8G\	qui	.	8b\	qui	.
!LO:LB:g=original	!	!	!	!	!	!	!	!	!	!	!
(>8E\L	ve-	.	4g/	ve-	.	4G\	ve-	.	(>8cc\L	ve-	.
8D\J)	.	.	.	.	.	.	.	.	8b\J)	.	.
8E\	-nit	.	8g/	-nit	.	8G\	-nit	.	8cc\	-nit	.
8D\	in	.	8b\	in	.	8G\	in	.	8dd\	in	.
!	!	!	!LO:LB:g=original	!	!	!	!	!	!	!	!
=36	=36	=36	=36	=36	=36	=36	=36	=36	=36	=36	=36
4.C/	no-	.	4.cc\	no-	.	4.G\	no-	.	4.ee\	no-	.
8C/	-mi-	.	8cc\	-mi-	.	8G\	-mi-	.	8ee\	-mi-	.
4C/	-ne	.	4cc\	-ne	.	4G\	-ne	.	4ee\	-ne	.
=37	=37	=37	=37	=37	=37	=37	=37	=37	=37	=37	=37
!	!	!LO:DY:b:rj	!	!	!	!	!	!	!	!	!
2D\	Do-	p	2a/	Do-	.	(>4G\	Do-	.	2dd\	Do-	.
.	.	.	.	.	.	8F#\L	.	.	.	.	.
.	.	.	.	.	.	8E\J)	.	.	.	.	.
4D\	-mi-	.	4a/	-mi-	.	4F#\	-mi-	.	4dd\	-mi-	.
!	!	!	!	!	!	!LO:LB:g=original	!	!	!LO:LB:g=original	!	!
=38	=38	=38	=38	=38	=38	=38	=38	=38	=38	=38	=38
2GG/	-ni	.	2g/	-ni	.	2G\	-ni	.	2b\	-ni	.
!	!	!LO:DY:b:rj	!	!	!LO:DY:b:rj	!	!	!	!	!	!LO:DY:b:rj
4E\	qui	p	4g/	qui	p	4E\	qui	.	4b\	qui	p
=39	=39	=39	=39	=39	=39	=39	=39	=39	=39	=39	=39
4E\	ve-	.	4g/	ve-	.	4E\	ve-	.	4b\	ve-	.
4E\	-nit	.	4g/	-nit	.	4E\	-nit	.	4b\	-nit	.
4AA/	in	.	4g/	in	.	4E\	in	.	4cc#X\	in	.
=40	=40	=40	=40	=40	=40	=40	=40	=40	=40	=40	=40
4.BB/	no-	.	4.f#/	no-	.	4.D\	no-	.	4.dd\	no-	.
8BB/	-mi-	.	8g/	-mi-	.	8E\	-mi-	.	8dd\	-mi-	.
4BB/	-ne	.	4g#X/	-ne	.	4E\	-ne	.	4dd\	-ne	.
!LO:LB:g=original	!	!	!LO:LB:g=original	!	!	!	!	!	!	!	!
=41	=41	=41	=41	=41	=41	=41	=41	=41	=41	=41	=41
2AA/	Do-	.	2a/	Do-	.	(>8F#X\L	Do-	.	(>4.dd\	Do-	.
.	.	.	.	.	.	16G\L	.	.	.	.	.
.	.	.	.	.	.	16F#\JJ	.	.	.	.	.
.	.	.	.	.	.	4.E\)	.	.	.	.	.
.	.	.	.	.	.	.	.	.	16cc#X\LL	.	.
.	.	.	.	.	.	.	.	.	16b\JJ)	.	.
4AA/	-mi-	.	4a/	-mi-	.	.	.	.	4cc#\	-mi-	.
.	.	.	.	.	.	8E\	-mi-	.	.	.	.
=42	=42	=42	=42	=42	=42	=42	=42	=42	=42	=42	=42
4D\	-ni	.	4a/	-ni	.	4F#\	-ni	.	4dd\	-ni	.
4r;>	.	.	4r;>	.	.	4r;>	.	.	4r;>	.	.
=43||	=43||	=43||	=43||	=43||	=43||	=43||	=43||	=43||	=43||	=43||	=43||
*k[f#c#]	*	*	*k[f#c#]	*	*	*k[f#c#]	*	*	*k[f#c#]	*	*
*D:	*	*	*D:	*	*	*D:	*	*	*D:	*	*
*M2/2	*	*	*M2/2	*	*	*M2/2	*	*	*M2/2	*	*
*met(c|)	*	*	*met(c|)	*	*	*met(c|)	*	*	*met(c|)	*	*
!LO:TX:i:a:t=Allegro	!	!LO:DY:b:rj	!LO:TX:i:a:t=Allegro	!	!LO:DY:b:rj	!LO:TX:i:a:t=Allegro	!	!	!LO:TX:i:a:t=Allegro	!	!LO:DY:b:rj
4A\	Ho-	f	4a/	Ho-	f	4A\	Ho-	.	4a/	Ho-	f
!	!	!	!	!	!	!LO:LB:g=original	!	!	!LO:LB:g=original	!	!
=44	=44	=44	=44	=44	=44	=44	=44	=44	=44	=44	=44
4B\	-san-	.	4b\	-san-	.	4B\	-san-	.	4b\	-san-	.
4A\	-na	.	4a/	-na	.	4A\	-na	.	4a/	-na	.
4B\	in	.	4b\	in	.	4B\	in	.	4b\	in	.
4c#\	ex-	.	4cc#\	ex-	.	4c#\	ex-	.	4cc#\	ex-	.
!	!	!	!LO:LB:g=original	!	!	!	!	!	!	!	!
=45	=45	=45	=45	=45	=45	=45	=45	=45	=45	=45	=45
2d\	-cel-	.	2dd\	-cel-	.	2d\	-cel-	.	2dd\	-cel-	.
4A\	-sis	.	4a/	-sis	.	4A\	-sis	.	4a/	-sis	.
4A\	ho-	.	4a/	Ho-	.	4A\	Ho-	.	4a/	Ho-	.
!LO:LB:g=original	!	!	!	!	!	!	!	!	!	!	!
=46	=46	=46	=46	=46	=46	=46	=46	=46	=46	=46	=46
(>4F#\	-san-	.	(>4a/	-san-	.	2A\	-san-	.	(>4dd\	-san-	.
4E\)	.	.	4cc#\)	.	.	.	.	.	4ee\)	.	.
2D\	-na	.	2dd\	-na	.	2A\	-na	.	2ff#\	-na	.
=47	=47	=47	=47	=47	=47	=47	=47	=47	=47	=47	=47
2G\	in	.	2dd\	in	.	2B\	in	.	2gg\	in	.
2D\	ex-	.	2dd\	ex-	.	2A\	ex-	.	2ff#\	ex-	.
=48	=48	=48	=48	=48	=48	=48	=48	=48	=48	=48	=48
2AA/	-cel-	.	2cc#\	-cel-	.	(>4A\	-cel-	.	2ee\	-cel-	.
.	.	.	.	.	.	4G\)	.	.	.	.	.
4BB/	-sis	.	4b\	-sis	.	4F#\	-sis	.	4dd\	-sis	.
4BB/	Ho-	.	4b\	Ho-	.	4F#\	Ho-	.	4dd\	Ho-	.
!	!	!	!	!	!	!LO:LB:g=original	!	!	!LO:LB:g=original	!	!
=49	=49	=49	=49	=49	=49	=49	=49	=49	=49	=49	=49
(<2GG/	-san-	.	(>2b\	-san-	.	(>2G\	-san-	.	(>4ee\	-san-	.
.	.	.	.	.	.	.	.	.	2dd\	.	.
2AA/)	.	.	2a/)	.	.	2E\)	.	.	.	.	.
.	.	.	.	.	.	.	.	.	4cc#\)	.	.
!	!	!	!LO:LB:g=original	!	!	!	!	!	!	!	!
=50	=50	=50	=50	=50	=50	=50	=50	=50	=50	=50	=50
4D\	-na	.	4a/	-na	.	4F#\	-na	.	4dd\	-na	.
4r	.	.	4r	.	.	4r	.	.	4r	.	.
4D\	in	.	4a/	in	.	4F#\	in	.	4dd\	in	.
4D\	ex-	.	4a/	ex-	.	4F#\	ex-	.	4dd\	ex-	.
!LO:LB:g=original	!	!	!	!	!	!	!	!	!	!	!
=51	=51	=51	=51	=51	=51	=51	=51	=51	=51	=51	=51
!LO:TX:i:a:t=ritard.	!	!	!	!	!	!	!	!	!	!	!
1D	-cel-	.	(<4a/	-cel-	.	(<4F#\	-cel-	.	1dd	-cel-	.
!	!	!	!LO:TX:i:a:t=ritard.	!	!	!	!	!	!	!	!
.	.	.	4b\	.	.	4G\	.	.	.	.	.
.	.	.	4a/	.	.	4F#\	.	.	.	.	.
.	.	.	4g/)	.	.	4E\)	.	.	.	.	.
=52	=52	=52	=52	=52	=52	=52	=52	=52	=52	=52	=52
1D;>	-sis	.	1a;	-sis	.	1F#;<	-sis	.	1dd;<	-sis	.
==	==	==	==	==	==	==	==	==	==	==	==
*-	*-	*-	*-	*-	*-	*-	*-	*-	*-	*-	*-
!!!system-decoration: [(s1,s2,s3,s4)]
!!!RDF**kern: > = above
!!!RDF**kern: < = below
!!!EED: Mateusz Mrugas
!!!EEV: 2021-02-07
!!!ENC: Andrzej Borzym
!!!END: 2021-01-30
!!!YEC: Copyright 2022 Narodowy Instytut Fryderyka Chopina (https://polishscores.org)
!!!YEM: Licence CC BY 4.0 (https://creativecommons.org/licenses/by/4.0)
